src/assets/icons/svg/childFaceHappy.svg

<?xml version="1.0" encoding="UTF-8"?>
<svg width="65px" height="65px" viewBox="0 0 65 65" version="1.1" xmlns="http://www.w3.org/2000/svg" xmlns:xlink="http://www.w3.org/1999/xlink">
    <!-- Generator: Sketch 60.1 (88133) - https://sketch.com -->
    <title>Lapsonen</title>
    <desc>Created with Sketch.</desc>
    <g id="MVP" stroke="none" stroke-width="1" fill="none" fill-rule="evenodd">
        <g id="Rekisteröidy-palvelun-käyttäjäksi-hki-profiili" transform="translate(-463.000000, -202.000000)">
            <g id="Lapsonen" transform="translate(463.000000, 202.000000)">
                <g id="Group-6">
                    <ellipse id="Oval" fill="#FFC61E" cx="32.3863636" cy="32.5" rx="32.3863636" ry="32.5"></ellipse>
                    <path d="M32.6207779,16.4666661 C36.7292193,16.4666661 40.5045438,17.9523803 43.4285696,20.5523802 C45.020128,18.8809517 45.7603877,17.1723803 45.8344137,17.0238089 C46.0564916,16.5409518 46.5746734,16.3552375 47.0558422,16.5409518 C47.537011,16.7638089 47.7220759,17.2838089 47.537011,17.766666 C47.462985,17.9523803 46.6116864,19.9209516 44.7610371,21.889523 C46.0564916,23.3752372 47.1298682,25.0838085 47.8701279,27.015237 C48.2772707,26.9038085 48.7214265,26.8666656 49.1655824,26.8666656 C52.4597381,26.8666656 55.124673,29.5409512 55.124673,32.8466653 C55.124673,36.1523795 52.4597381,38.8266651 49.1655824,38.8266651 C48.7214265,38.8266651 48.3142837,38.7895222 47.8701279,38.6780936 C45.4642838,45.0295219 39.4681802,49.2266646 32.6207779,49.2266646 C25.8103886,49.2266646 19.777272,45.0295219 17.3714279,38.6780936 C16.9642851,38.7895222 16.5201293,38.8266651 16.0759734,38.8266651 C12.7818177,38.8266651 10.1168828,36.1523795 10.1168828,32.8466653 C10.1168828,29.5409512 12.7818177,26.8666656 16.0759734,26.8666656 C16.5201293,26.8666656 16.9272721,26.9038085 17.3714279,27.015237 C19.777272,20.6638087 25.7733756,16.4666661 32.6207779,16.4666661 Z M25.6623367,20.1066659 C22.4792199,21.8152373 19.9623369,24.7495228 18.8149344,28.4266655 C18.3337656,29.838094 18.1116876,31.3609511 18.1116876,32.8466653 C18.1116876,34.3323796 18.3707785,35.8552366 18.8149344,37.2666651 L18.8149344,37.2666651 L18.919567,37.5834487 C20.934654,43.4617596 26.4025964,47.3695218 32.6207779,47.3695218 C38.9499984,47.3695218 44.5019462,43.3209506 46.4266214,37.303808 C46.9077902,35.8923795 47.1298682,34.4066653 47.1298682,32.8838082 C47.1298682,31.3609511 46.8707773,29.8752369 46.4266214,28.4638084 C45.7603877,26.4209513 44.7240241,24.6380943 43.3915566,23.1523801 C41.5779204,24.6009514 39.1720763,25.7895228 36.0259726,25.7895228 C29.733765,25.7895228 26.6987002,21.889523 25.6623367,20.1066659 Z M28.8454534,38.9009508 C29.1785703,38.5295222 29.770778,38.5295222 30.1409079,38.9009508 C30.6220767,39.3838079 31.4733754,39.6438079 32.6207779,39.6438079 C33.8051934,39.6438079 34.6194791,39.3838079 35.1006479,38.9009508 C35.4337648,38.5295222 36.0259726,38.5295222 36.3961024,38.9009508 C36.7662323,39.2352365 36.7662323,39.8295222 36.3961024,40.2009507 C35.5818167,41.0552364 34.2863622,41.5009507 32.6207779,41.5009507 C30.9551936,41.5009507 29.6967521,41.0552364 28.8454534,40.2009507 C28.4753235,39.866665 28.4753235,39.2723793 28.8454534,38.9009508 Z M16.0389605,28.7238084 C13.7811684,28.7238084 11.9305191,30.5809512 11.9305191,32.8466653 C11.9305191,35.1123795 13.7811684,36.9695223 16.0389605,37.043808 C16.2980514,37.043808 16.5201293,37.0066652 16.7792202,36.9695223 C16.4461033,35.6323795 16.2610384,34.2580938 16.2610384,32.8838082 C16.2610384,31.5095225 16.4461033,30.1352369 16.7792202,28.7980941 C16.5201293,28.7609512 16.2980514,28.7238084 16.0389605,28.7238084 Z M49.1655824,28.6495227 C48.9064915,28.6495227 48.6844135,28.6866655 48.4253226,28.7238084 C48.7584395,30.0609512 48.9435044,31.4352368 48.9435044,32.8095225 C48.9435044,34.1838081 48.7584395,35.5580938 48.4253226,36.8952366 C48.6844135,36.9323794 48.9064915,36.9695223 49.1655824,36.9695223 C51.4603874,36.9695223 53.2740237,35.0380938 53.2740237,32.7723796 C53.2740237,30.5066654 51.4233745,28.6495227 49.1655824,28.6495227 Z M40.8746736,30.7666654 C41.7945505,30.7666654 42.540258,31.5149895 42.540258,32.4380939 C42.540258,33.3611984 41.7945505,34.1095224 40.8746736,34.1095224 C39.9547968,34.1095224 39.2090893,33.3611984 39.2090893,32.4380939 C39.2090893,31.5149895 39.9547968,30.7666654 40.8746736,30.7666654 Z M24.699999,30.7666654 C25.6198759,30.7666654 26.3655834,31.5149895 26.3655834,32.4380939 C26.3655834,33.3611984 25.6198759,34.1095224 24.699999,34.1095224 C23.7801222,34.1095224 23.0344147,33.3611984 23.0344147,32.4380939 C23.0344147,31.5149895 23.7801222,30.7666654 24.699999,30.7666654 Z M32.6207779,18.3238088 C30.7701286,18.3238088 28.9935053,18.6580945 27.364934,19.2895231 C28.2902586,20.8123802 30.8071416,23.8952372 36.0259726,23.8952372 C38.5428556,23.8952372 40.5415568,23.0038086 42.0590892,21.8152373 C39.5051932,19.6238088 36.1740245,18.3238088 32.6207779,18.3238088 Z" id="child_face" fill="#1A1A1A" fill-rule="nonzero"></path>
                </g>
            </g>
        </g>
    </g>
</svg>

<?xml version="1.0" encoding="UTF-8"?>
<svg version="1.1" viewBox="0 0 65 65" xmlns="http://www.w3.org/2000/svg"><g fill="none" fill-rule="evenodd"><g transform="translate(-463 -202)"><g transform="translate(463 202)"><ellipse cx="32.386" cy="32.5" rx="32.386" ry="32.5" fill="#FFC61E"/><path d="m32.621 16.467c4.1084 0 7.8838 1.4857 10.808 4.0857 1.5916-1.6714 2.3318-3.38 2.4058-3.5286 0.22208-0.48286 0.74026-0.66857 1.2214-0.48286 0.48117 0.22286 0.66623 0.74286 0.48117 1.2257-0.074026 0.18571-0.92532 2.1543-2.776 4.1229 1.2955 1.4857 2.3688 3.1943 3.1091 5.1257 0.40714-0.11143 0.8513-0.14857 1.2955-0.14857 3.2942 0 5.9591 2.6743 5.9591 5.98 0 3.3057-2.6649 5.98-5.9591 5.98-0.44416 0-0.8513-0.037143-1.2955-0.14857-2.4058 6.3514-8.4019 10.549-15.249 10.549-6.8104 0-12.844-4.1971-15.249-10.549-0.40714 0.11143-0.8513 0.14857-1.2955 0.14857-3.2942 0-5.9591-2.6743-5.9591-5.98 0-3.3057 2.6649-5.98 5.9591-5.98 0.44416 0 0.8513 0.037143 1.2955 0.14857 2.4058-6.3514 8.4019-10.549 15.249-10.549zm-6.9584 3.64c-3.1831 1.7086-5.7 4.6429-6.8474 8.32-0.48117 1.4114-0.70325 2.9343-0.70325 4.42 0 1.4857 0.25909 3.0086 0.70325 4.42l0.10463 0.31678c2.0151 5.8783 7.483 9.7861 13.701 9.7861 6.3292 0 11.881-4.0486 13.806-10.066 0.48117-1.4114 0.70325-2.8971 0.70325-4.42s-0.25909-3.0086-0.70325-4.42c-0.66623-2.0429-1.7026-3.8257-3.0351-5.3114-1.8136 1.4486-4.2195 2.6371-7.3656 2.6371-6.2922 0-9.3273-3.9-10.364-5.6829zm3.1831 18.794c0.33312-0.37143 0.92532-0.37143 1.2955 0 0.48117 0.48286 1.3325 0.74286 2.4799 0.74286 1.1844 0 1.9987-0.26 2.4799-0.74286 0.33312-0.37143 0.92532-0.37143 1.2955 0 0.37013 0.33429 0.37013 0.92857 0 1.3-0.81429 0.85429-2.1097 1.3-3.7753 1.3s-2.924-0.44571-3.7753-1.3c-0.37013-0.33429-0.37013-0.92857 0-1.3zm-12.806-10.177c-2.2578 0-4.1084 1.8571-4.1084 4.1229 0 2.2657 1.8506 4.1229 4.1084 4.1971 0.25909 0 0.48117-0.037143 0.74026-0.074286-0.33312-1.3371-0.51818-2.7114-0.51818-4.0857 0-1.3743 0.18506-2.7486 0.51818-4.0857-0.25909-0.037143-0.48117-0.074286-0.74026-0.074286zm33.127-0.074286c-0.25909 0-0.48117 0.037143-0.74026 0.074286 0.33312 1.3371 0.51818 2.7114 0.51818 4.0857 0 1.3743-0.18506 2.7486-0.51818 4.0857 0.25909 0.037143 0.48117 0.074286 0.74026 0.074286 2.2948 0 4.1084-1.9314 4.1084-4.1971s-1.8506-4.1229-4.1084-4.1229zm-8.2909 2.1171c0.91988 0 1.6656 0.74832 1.6656 1.6714 0 0.9231-0.74571 1.6714-1.6656 1.6714-0.91988 0-1.6656-0.74832-1.6656-1.6714 0-0.9231 0.74571-1.6714 1.6656-1.6714zm-16.175 0c0.91988 0 1.6656 0.74832 1.6656 1.6714 0 0.9231-0.74571 1.6714-1.6656 1.6714-0.91988 0-1.6656-0.74832-1.6656-1.6714 0-0.9231 0.74571-1.6714 1.6656-1.6714zm7.9208-12.443c-1.8506 0-3.6273 0.33429-5.2558 0.96571 0.92532 1.5229 3.4422 4.6057 8.661 4.6057 2.5169 0 4.5156-0.89143 6.0331-2.08-2.5539-2.1914-5.8851-3.4914-9.4383-3.4914z" fill="#1A1A1A" fill-rule="nonzero"/></g></g></g></svg>
